X: 29764
T: O Kirree T'ou Goll Dy Faagail Mee
R: waltz
M: 3/4
K: Edorian
EF|G2 B2 G2|F2 A2 F2|ED E4-|E4 EF|
G2 A2 B2|B2 c2 d2|e5-|e4 dc|
d2 c2 B2|A2 B2 FE|D2 E4|F4 BA|
G2 F2 E2|B,2 E2 D2|E5-|E4||

